src/Image/icon/CommunityOutlined.svg

<svg width="60" height="51" viewBox="0 0 60 51" fill="currentColor" xmlns="http://www.w3.org/2000/svg">
<path d="M0 0V42H9L7.5 51L15 42H60V0H0ZM55.5 37.5H4.5V4.5H55.5V37.5Z" />
<path d="M55.5 4.5H4.5V37.5H55.5V4.5Z" />
<path d="M21 17.25H13.5V24.75H21V17.25Z" fill="white"/>
<path d="M19.5 18.75H15V23.25H19.5V18.75Z" fill="white"/>
<path d="M33.75 17.25H26.25V24.75H33.75V17.25Z" fill="white"/>
<path d="M32.25 18.75H27.75V23.25H32.25V18.75Z" fill="white"/>
<path d="M46.5 17.25H39V24.75H46.5V17.25Z" fill="white"/>
<path d="M45 18.75H40.5V23.25H45V18.75Z" fill="white"/>
</svg>

<?xml version="1.0" encoding="utf-8"?>
<!-- Generator: Adobe Illustrator 28.1.0, SVG Export Plug-In . SVG Version: 6.00 Build 0)  -->
<svg version="1.1" id="레이어_1" xmlns="http://www.w3.org/2000/svg" xmlns:xlink="http://www.w3.org/1999/xlink" x="0px"
	 y="0px" viewBox="0 0 60 51" style="enable-background:new 0 0 60 51;" xml:space="preserve">
<style type="text/css">
	.st0{clip-path:url(#SVGID_00000044874864710787737370000011989992811824398233_);}
	.st1{fill:currentColor;}
	.st2{fill:#FFFFFF;}
</style>
<g>
	<defs>
		<rect id="SVGID_1_" y="0" width="60" height="51"/>
	</defs>
	<clipPath id="SVGID_00000111877607537388288240000018290325375711295145_">
		<use xlink:href="#SVGID_1_"  style="overflow:visible;"/>
	</clipPath>
	<g style="clip-path:url(#SVGID_00000111877607537388288240000018290325375711295145_);">
		<path class="st1" d="M0,0v42h9l-1.5,9l7.5-9h45V0H0z M55.5,37.5h-51v-33h51V37.5z"/>
		<path class="st1" d="M60,0H0v42h60V0z"/>
		<path class="st2" d="M21,17.2h-7.5v7.5H21V17.2z"/>
		<path class="st2" d="M19.5,18.7H15v4.5h4.5V18.7z"/>
		<path class="st2" d="M33.8,17.2h-7.5v7.5h7.5V17.2z"/>
		<path class="st2" d="M32.2,18.7h-4.5v4.5h4.5V18.7z"/>
		<path class="st2" d="M46.5,17.2H39v7.5h7.5V17.2z"/>
		<path class="st2" d="M45,18.7h-4.5v4.5H45V18.7z"/>
	</g>
</g>
</svg>
